X:476
T: WER KANNS VERDENKEN MICH
N: E1733
O: Europa, Mitteleuropa, Deutschland, Hessen, Nassau, Hennethal
R: Scherz - Lied
M: 4/4
L: 1/8
K: G
D2 | G2B2BAA2 | G4
A4 | B2d2dcB2 | A4z4 |
d3cBAG2 | e2e2d4 |
d2dcB2B2 | BAA2G4 |
c2e2d2B2 | BAA2G2

@@@ Tune index: 5160
